images/portal/4276.svg

<?xml version="1.0" standalone="no"?><!DOCTYPE svg PUBLIC "-//W3C//DTD SVG 1.1//EN" "http://www.w3.org/Graphics/SVG/1.1/DTD/svg11.dtd"><svg xmlns:xlink="http://www.w3.org/1999/xlink" version="1.1" class="highcharts-root" style="font-family:arial;font-size:9pt;" xmlns="http://www.w3.org/2000/svg" width="485" height="415"><desc>Created with Highstock 5.0.14</desc><defs><clipPath id="highcharts-jt3c2hr-7"><rect x="0" y="0" width="432" height="254" fill="none"></rect></clipPath><clipPath id="highcharts-jt3c2hr-8"><rect x="0" y="0" width="432" height="254" fill="none"></rect></clipPath></defs><rect fill="#fbfbfb" class="highcharts-background" x="0" y="0" width="485" height="415" rx="0" ry="0"></rect><rect fill="none" class="highcharts-plot-background" x="43" y="90" width="432" height="254"></rect><g class="highcharts-label" style="cursor:pointer;" transform="translate(10,451)"><text x="0" y="0"><tspan>&gt; Indikator-Details</tspan></text></g><g class="highcharts-pane-group"></g><g class="highcharts-grid highcharts-xaxis-grid "><path fill="none" class="highcharts-grid-line" d="M 53.5 90 L 53.5 344" opacity="1"></path><path fill="none" class="highcharts-grid-line" d="M 96.5 90 L 96.5 344" opacity="1"></path><path fill="none" class="highcharts-grid-line" d="M 139.5 90 L 139.5 344" opacity="1"></path><path fill="none" class="highcharts-grid-line" d="M 182.5 90 L 182.5 344" opacity="1"></path><path fill="none" class="highcharts-grid-line" d="M 226.5 90 L 226.5 344" opacity="1"></path><path fill="none" class="highcharts-grid-line" d="M 269.5 90 L 269.5 344" opacity="1"></path><path fill="none" class="highcharts-grid-line" d="M 312.5 90 L 312.5 344" opacity="1"></path><path fill="none" class="highcharts-grid-line" d="M 355.5 90 L 355.5 344" opacity="1"></path><path fill="none" class="highcharts-grid-line" d="M 398.5 90 L 398.5 344" opacity="1"></path><path fill="none" class="highcharts-grid-line" d="M 442.5 90 L 442.5 344" opacity="1"></path></g><g class="highcharts-grid highcharts-yaxis-grid "><path fill="none" stroke="#e6e6e6" stroke-width="1" class="highcharts-grid-line" d="M 43 344.5 L 475 344.5" opacity="1"></path><path fill="none" stroke="#e6e6e6" stroke-width="1" class="highcharts-grid-line" d="M 43 281.5 L 475 281.5" opacity="1"></path><path fill="none" stroke="#e6e6e6" stroke-width="1" class="highcharts-grid-line" d="M 43 217.5 L 475 217.5" opacity="1"></path><path fill="none" stroke="#e6e6e6" stroke-width="1" class="highcharts-grid-line" d="M 43 154.5 L 475 154.5" opacity="1"></path><path fill="none" stroke="#e6e6e6" stroke-width="1" class="highcharts-grid-line" d="M 43 89.5 L 475 89.5" opacity="1"></path></g><g class="highcharts-grid highcharts-yaxis-grid "></g><rect fill="none" class="highcharts-plot-border" x="43" y="90" width="432" height="254"></rect><g class="highcharts-axis highcharts-xaxis "><path fill="none" class="highcharts-axis-line" stroke="#ccd6eb" stroke-width="1" d="M 43 344.5 L 475 344.5"></path></g><g class="highcharts-axis highcharts-yaxis "><path fill="none" class="highcharts-axis-line" d="M 43 90 L 43 344"></path></g><g class="highcharts-axis highcharts-yaxis "><path fill="none" class="highcharts-axis-line" d="M 475 90 L 475 344"></path></g><g class="highcharts-series-group"><g class="highcharts-series highcharts-series-0 highcharts-column-series highcharts-color-undefined " transform="translate(43,90) scale(1 1)" clip-path="url(#highcharts-jt3c2hr-8)"><rect x="5" y="252" width="6" height="3" fill="#FF8028" class="highcharts-point"></rect><rect x="27" y="252" width="6" height="3" fill="#FF8028" class="highcharts-point"></rect><rect x="48" y="252" width="6" height="3" fill="#FF8028" class="highcharts-point"></rect><rect x="70" y="252" width="6" height="3" fill="#FF8028" class="highcharts-point"></rect><rect x="91" y="252" width="6" height="3" fill="#FF8028" class="highcharts-point"></rect><rect x="113" y="252" width="6" height="3" fill="#FF8028" class="highcharts-point"></rect><rect x="135" y="252" width="6" height="3" fill="#FF8028" class="highcharts-point"></rect><rect x="156" y="253" width="6" height="2" fill="#FF8028" class="highcharts-point"></rect><rect x="178" y="252" width="6" height="3" fill="#FF8028" class="highcharts-point"></rect><rect x="199" y="252" width="6" height="3" fill="#FF8028" class="highcharts-point"></rect><rect x="221" y="253" width="6" height="2" fill="#FF8028" class="highcharts-point"></rect><rect x="243" y="253" width="6" height="2" fill="#FF8028" class="highcharts-point"></rect><rect x="264" y="253" width="6" height="2" fill="#FF8028" class="highcharts-point"></rect><rect x="286" y="253" width="6" height="2" fill="#FF8028" class="highcharts-point"></rect><rect x="307" y="253" width="6" height="2" fill="#FF8028" class="highcharts-point"></rect><rect x="329" y="253" width="6" height="2" fill="#FF8028" class="highcharts-point"></rect><rect x="351" y="253" width="6" height="2" fill="#FF8028" class="highcharts-point"></rect><rect x="372" y="253" width="6" height="2" fill="#FF8028" class="highcharts-point"></rect><rect x="394" y="253" width="6" height="2" fill="#FF8028" class="highcharts-point"></rect><rect x="415" y="253" width="6" height="2" fill="#FF8028" class="highcharts-point"></rect></g><g class="highcharts-markers highcharts-series-0 highcharts-column-series highcharts-color-undefined " transform="translate(43,90) scale(1 1)" clip-path="none"></g><g class="highcharts-series highcharts-series-1 highcharts-column-series highcharts-color-undefined " transform="translate(43,90) scale(1 1)" clip-path="url(#highcharts-jt3c2hr-8)"><rect x="11" y="63" width="6" height="192" fill="#B375AB" class="highcharts-point"></rect><rect x="33" y="72" width="6" height="183" fill="#B375AB" class="highcharts-point"></rect><rect x="55" y="77" width="6" height="178" fill="#B375AB" class="highcharts-point"></rect><rect x="76" y="79" width="6" height="176" fill="#B375AB" class="highcharts-point"></rect><rect x="98" y="80" width="6" height="175" fill="#B375AB" class="highcharts-point"></rect><rect x="119" y="75" width="6" height="180" fill="#B375AB" class="highcharts-point"></rect><rect x="141" y="77" width="6" height="178" fill="#B375AB" class="highcharts-point"></rect><rect x="163" y="81" width="6" height="174" fill="#B375AB" class="highcharts-point"></rect><rect x="184" y="88" width="6" height="167" fill="#B375AB" class="highcharts-point"></rect><rect x="206" y="87" width="6" height="168" fill="#B375AB" class="highcharts-point"></rect><rect x="227" y="87" width="6" height="168" fill="#B375AB" class="highcharts-point"></rect><rect x="249" y="79" width="6" height="176" fill="#B375AB" class="highcharts-point"></rect><rect x="271" y="77" width="6" height="178" fill="#B375AB" class="highcharts-point"></rect><rect x="292" y="79" width="6" height="176" fill="#B375AB" class="highcharts-point"></rect><rect x="314" y="74" width="6" height="181" fill="#B375AB" class="highcharts-point"></rect><rect x="335" y="79" width="6" height="176" fill="#B375AB" class="highcharts-point"></rect><rect x="357" y="82" width="6" height="173" fill="#B375AB" class="highcharts-point"></rect><rect x="379" y="80" width="6" height="175" fill="#B375AB" class="highcharts-point"></rect><rect x="400" y="79" width="6" height="176" fill="#B375AB" class="highcharts-point"></rect><rect x="422" y="80" width="6" height="175" fill="#B375AB" class="highcharts-point"></rect></g><g class="highcharts-markers highcharts-series-1 highcharts-column-series highcharts-color-undefined " transform="translate(43,90) scale(1 1)" clip-path="none"></g></g><text x="10" text-anchor="start" class="highcharts-title" style="color:#000000;font-size:1.1em;font-weight:bold;fill:#000000;" y="20"><tspan>Rindviehbestand</tspan></text><text x="10" text-anchor="start" class="highcharts-subtitle" style="color:#000000;font-size:0.9em;fill:#000000;" y="38"><tspan>Anzahl Rinder</tspan></text><g class="highcharts-legend" transform="translate(10,40)"><rect fill="none" class="highcharts-legend-box" rx="0" ry="0" x="0" y="0" width="323" height="38" visibility="visible"></rect><g><g><g class="highcharts-legend-item highcharts-column-series highcharts-color-undefined highcharts-series-0" transform="translate(12,7)"><text x="21" style="color:#333333;font-size:1em;font-weight:normal;cursor:pointer;fill:#333333;" text-anchor="start" y="15"><tspan>Kanton Basel-Stadt</tspan></text><rect x="2" y="4" width="12" height="12" fill="#FF8028" class="highcharts-point"></rect></g><g class="highcharts-legend-item highcharts-column-series highcharts-color-undefined highcharts-series-1" transform="translate(156.328125,7)"><text x="21" y="15" style="color:#333333;font-size:1em;font-weight:normal;cursor:pointer;fill:#333333;" text-anchor="start"><tspan>Kanton Basel-Landschaft</tspan></text><rect x="2" y="4" width="12" height="12" fill="#B375AB" class="highcharts-point"></rect></g></g></g></g><g class="highcharts-axis-labels highcharts-xaxis-labels "><text x="53.8" style="color:#000000;cursor:default;font-size:0.9em;fill:#000000;" text-anchor="middle" transform="translate(0,0)" y="363" opacity="1">1996</text><text x="97" style="color:#000000;cursor:default;font-size:0.9em;fill:#000000;" text-anchor="middle" transform="translate(0,0)" y="363" opacity="1">1998</text><text x="140.2" style="color:#000000;cursor:default;font-size:0.9em;fill:#000000;" text-anchor="middle" transform="translate(0,0)" y="363" opacity="1">2000</text><text x="183.40000000000003" style="color:#000000;cursor:default;font-size:0.9em;fill:#000000;" text-anchor="middle" transform="translate(0,0)" y="363" opacity="1">2002</text><text x="226.60000000000002" style="color:#000000;cursor:default;font-size:0.9em;fill:#000000;" text-anchor="middle" transform="translate(0,0)" y="363" opacity="1">2004</text><text x="269.8" style="color:#000000;cursor:default;font-size:0.9em;fill:#000000;" text-anchor="middle" transform="translate(0,0)" y="363" opacity="1">2006</text><text x="313.00000000000006" style="color:#000000;cursor:default;font-size:0.9em;fill:#000000;" text-anchor="middle" transform="translate(0,0)" y="363" opacity="1">2008</text><text x="356.20000000000005" style="color:#000000;cursor:default;font-size:0.9em;fill:#000000;" text-anchor="middle" transform="translate(0,0)" y="363" opacity="1">2010</text><text x="399.40000000000003" style="color:#000000;cursor:default;font-size:0.9em;fill:#000000;" text-anchor="middle" transform="translate(0,0)" y="363" opacity="1">2012</text><text x="442.6" style="color:#000000;cursor:default;font-size:0.9em;fill:#000000;" text-anchor="middle" transform="translate(0,0)" y="363" opacity="1">2014</text></g><g class="highcharts-axis-labels highcharts-yaxis-labels "><text x="28" style="color:#000000;cursor:default;font-size:0.9em;fill:#000000;" text-anchor="end" transform="translate(0,0)" y="349" opacity="1"><tspan>0</tspan></text><text x="28" style="color:#000000;cursor:default;font-size:0.9em;fill:#000000;" text-anchor="end" transform="translate(0,0)" y="285" opacity="1"><tspan>10k</tspan></text><text x="28" style="color:#000000;cursor:default;font-size:0.9em;fill:#000000;" text-anchor="end" transform="translate(0,0)" y="222" opacity="1"><tspan>20k</tspan></text><text x="28" style="color:#000000;cursor:default;font-size:0.9em;fill:#000000;" text-anchor="end" transform="translate(0,0)" y="158" opacity="1"><tspan>30k</tspan></text><text x="28" style="color:#000000;cursor:default;font-size:0.9em;fill:#000000;" text-anchor="end" transform="translate(0,0)" y="95" opacity="1"><tspan>40k</tspan></text></g><g class="highcharts-axis-labels highcharts-yaxis-labels "></g><text x="10" class="highcharts-credits" text-anchor="start" style="cursor:default;color:#000000;font-size:0.8em;fill:#000000;" y="400"><tspan>Quelle: Bundesamt für Statistik</tspan></text></svg>

<svg class="highcharts-root" xmlns="http://www.w3.org/2000/svg" width="485" height="415" font-family="arial" font-size="12">
    <defs>
        <clipPath id="a">
            <path fill="none" d="M0 0h432v254H0z"/>
        </clipPath>
    </defs>
    <rect fill="#fbfbfb" class="highcharts-background" width="485" height="415" rx="0" ry="0"/>
    <path fill="none" class="highcharts-plot-background" d="M43 90h432v254H43z"/>
    <text transform="translate(10 451)" class="highcharts-label" cursor="pointer">
        <tspan>&gt; Indikator-Details</tspan>
    </text>
    <g class="highcharts-grid highcharts-xaxis-grid">
        <path fill="none" class="highcharts-grid-line" d="M53.5 90v254m43-254v254m43-254v254m43-254v254m44-254v254m43-254v254m43-254v254m43-254v254m43-254v254m44-254v254"/>
    </g>
    <g class="highcharts-grid highcharts-yaxis-grid">
        <path fill="none" stroke="#e6e6e6" class="highcharts-grid-line" d="M43 344.5h432m-432-63h432m-432-64h432m-432-63h432m-432-65h432"/>
    </g>
    <path fill="none" class="highcharts-plot-border" d="M43 90h432v254H43z"/>
    <g class="highcharts-axis highcharts-xaxis">
        <path fill="none" class="highcharts-axis-line" stroke="#ccd6eb" d="M43 344.5h432"/>
    </g>
    <g class="highcharts-axis highcharts-yaxis">
        <path fill="none" class="highcharts-axis-line" d="M43 90v254"/>
    </g>
    <g class="highcharts-axis highcharts-yaxis">
        <path fill="none" class="highcharts-axis-line" d="M475 90v254"/>
    </g>
    <g class="highcharts-series-group">
        <g class="highcharts-series highcharts-series-0 highcharts-column-series highcharts-color-undefined" transform="translate(43 90)" clip-path="url(#a)">
            <path fill="#FF8028" class="highcharts-point" d="M5 252h6v3H5zm22 0h6v3h-6zm21 0h6v3h-6zm22 0h6v3h-6zm21 0h6v3h-6zm22 0h6v3h-6zm22 0h6v3h-6zm21 1h6v2h-6zm22-1h6v3h-6zm21 0h6v3h-6zm22 1h6v2h-6zm22 0h6v2h-6zm21 0h6v2h-6zm22 0h6v2h-6zm21 0h6v2h-6zm22 0h6v2h-6zm22 0h6v2h-6zm21 0h6v2h-6zm22 0h6v2h-6zm21 0h6v2h-6z"/>
        </g>
        <g class="highcharts-series highcharts-series-1 highcharts-column-series highcharts-color-undefined" transform="translate(43 90)" clip-path="url(#a)">
            <path fill="#B375AB" class="highcharts-point" d="M11 63h6v192h-6zm22 9h6v183h-6zm22 5h6v178h-6zm21 2h6v176h-6zm22 1h6v175h-6zm21-5h6v180h-6zm22 2h6v178h-6zm22 4h6v174h-6zm21 7h6v167h-6zm22-1h6v168h-6zm21 0h6v168h-6zm22-8h6v176h-6zm22-2h6v178h-6zm21 2h6v176h-6zm22-5h6v181h-6zm21 5h6v176h-6zm22 3h6v173h-6zm22-2h6v175h-6zm21-1h6v176h-6zm22 1h6v175h-6z"/>
        </g>
    </g>
    <text x="10" class="highcharts-title" y="20" color="#000" font-size="1.1em" font-weight="700">
        <tspan>Rindviehbestand</tspan>
    </text>
    <text x="10" class="highcharts-subtitle" y="38" color="#000" font-size=".9em">
        <tspan>Anzahl Rinder</tspan>
    </text>
    <g class="highcharts-legend" transform="translate(10 40)">
        <rect fill="none" class="highcharts-legend-box" rx="0" ry="0" width="323" height="38"/>
        <g class="highcharts-legend-item highcharts-column-series highcharts-color-undefined highcharts-series-0">
            <text x="21" y="15" color="#333" font-size="1em" font-weight="400" cursor="pointer" fill="#333" transform="translate(12 7)">
                <tspan>Kanton Basel-Stadt</tspan>
            </text>
            <path fill="#FF8028" class="highcharts-point" d="M14 11h12v12H14z"/>
        </g>
        <g class="highcharts-legend-item highcharts-column-series highcharts-color-undefined highcharts-series-1">
            <text x="21" y="15" color="#333" font-size="1em" font-weight="400" cursor="pointer" fill="#333" transform="translate(156.328 7)">
                <tspan>Kanton Basel-Landschaft</tspan>
            </text>
            <path fill="#B375AB" class="highcharts-point" d="M158.328 11h12v12h-12z"/>
        </g>
    </g>
    <g class="highcharts-axis-labels highcharts-xaxis-labels" text-anchor="middle" color="#000" cursor="default" font-size=".9em">
        <text x="53.8" y="363">
            1996
        </text>
        <text x="97" y="363">
            1998
        </text>
        <text x="140.2" y="363">
            2000
        </text>
        <text x="183.4" y="363">
            2002
        </text>
        <text x="226.6" y="363">
            2004
        </text>
        <text x="269.8" y="363">
            2006
        </text>
        <text x="313" y="363">
            2008
        </text>
        <text x="356.2" y="363">
            2010
        </text>
        <text x="399.4" y="363">
            2012
        </text>
        <text x="442.6" y="363">
            2014
        </text>
    </g>
    <g class="highcharts-axis-labels highcharts-yaxis-labels" text-anchor="end" color="#000" cursor="default" font-size=".9em">
        <text x="28" y="349">
            <tspan>0</tspan>
        </text>
        <text x="28" y="285">
            <tspan>10k</tspan>
        </text>
        <text x="28" y="222">
            <tspan>20k</tspan>
        </text>
        <text x="28" y="158">
            <tspan>30k</tspan>
        </text>
        <text x="28" y="95">
            <tspan>40k</tspan>
        </text>
    </g>
    <text x="10" class="highcharts-credits" y="400" cursor="default" color="#000" font-size=".8em">
        <tspan>Quelle: Bundesamt für Statistik</tspan>
    </text>
</svg>
